img/bootstrap.svg

<svg width="110" height="126" viewBox="0 0 110 126" fill="none" xmlns="http://www.w3.org/2000/svg">
<path d="M23.4512 0C17.2834 0 12.721 6.18581 12.9247 12.8943C13.1206 19.338 12.8663 27.6855 11.0315 34.4915C9.19242 41.3191 6.08148 45.6337 1 46.1888V52.476C6.08148 53.0303 9.19242 57.3457 11.0315 64.1734C12.8663 70.9793 13.1198 79.3268 12.9247 85.7706C12.7202 92.4791 17.2834 98.6639 23.4512 98.6639H86.6496C92.8173 98.6639 97.3798 92.4781 97.1761 85.7706C96.9802 79.3268 97.2345 70.9793 99.0684 64.1734C100.908 57.3467 104.011 53.0312 109.092 52.476V46.1888C104.011 45.6346 100.908 41.3191 99.0684 34.4915C97.2345 27.6855 96.9802 19.338 97.1761 12.8943C97.3798 6.18581 92.8173 0 86.6488 0H23.4512ZM73.3929 60.7222C73.3929 69.9595 67.3755 75.5596 57.3905 75.5596H38.9809C38.869 75.5596 38.7617 75.5087 38.6826 75.4181C38.6034 75.3274 38.559 75.2045 38.559 75.0763V23.5679C38.5589 23.5044 38.5697 23.4414 38.5909 23.3826C38.612 23.3239 38.6431 23.2705 38.6823 23.2255C38.7215 23.1805 38.768 23.1448 38.8193 23.1205C38.8705 23.0961 38.9255 23.0836 38.9809 23.0836H57.2934C65.6198 23.0836 71.0838 28.2476 71.0838 36.1758C71.0838 41.7405 67.4082 46.7214 62.7246 47.5945V47.8859C69.0994 48.6862 73.3929 53.741 73.3929 60.7222ZM55.5368 29.739H45.8448V45.4122H54.0088C60.3184 45.4122 63.798 42.5033 63.798 37.3029C63.798 32.4302 60.8065 29.739 55.5368 29.739ZM45.8448 51.6315V68.9053H55.8952C62.4651 68.9053 65.9455 65.8872 65.9455 60.2132C65.9455 54.5403 62.368 51.6315 55.4723 51.6315H45.8448Z" fill="#7952B3"/>
<path d="M9.79517 119.533V102.072H14.1324C15.4501 102.072 16.4954 102.441 17.2683 103.18C18.0406 103.918 18.4267 104.88 18.4267 106.065C18.4267 107.056 18.193 107.917 17.7255 108.647C17.2574 109.378 16.6123 109.897 15.7902 110.206V110.255C16.818 110.393 17.6401 110.839 18.2566 111.594C18.873 112.34 19.1813 113.315 19.1813 114.516C19.1813 116.01 18.7138 117.219 17.7788 118.145C16.8432 119.07 15.663 119.533 14.2381 119.533H9.79517ZM11.5809 103.922V109.56H13.4097C14.3877 109.56 15.1565 109.292 15.7163 108.757C16.276 108.212 16.5559 107.449 16.5559 106.467C16.5559 104.771 15.5813 103.922 13.6323 103.922H11.5809ZM11.5809 111.399V117.682H14.0044C15.0534 117.682 15.8649 117.398 16.439 116.83C17.0199 116.261 17.3104 115.482 17.3104 114.492C17.3104 112.43 16.0844 111.399 13.6323 111.399H11.5809ZM26.5908 119.828C24.982 119.828 23.6958 119.248 22.7322 118.087C21.7754 116.918 21.297 115.371 21.297 113.447C21.297 111.353 21.7966 109.717 22.7958 108.54C23.795 107.363 25.145 106.775 26.846 106.775C28.4685 106.775 29.7335 107.347 30.641 108.492C31.5548 109.636 32.0117 111.223 32.0117 113.252C32.0117 115.241 31.5193 116.837 30.5345 118.038C29.5565 119.231 28.2419 119.828 26.5908 119.828ZM26.718 108.455C25.5985 108.455 24.7128 108.894 24.0608 109.771C23.4088 110.639 23.0828 111.84 23.0828 113.374C23.0828 114.852 23.4122 116.017 24.0711 116.869C24.73 117.722 25.6123 118.149 26.718 118.149C27.8449 118.149 28.7097 117.73 29.3124 116.894C29.9214 116.057 30.2259 114.868 30.2259 113.326C30.2259 111.768 29.9214 110.566 29.3124 109.721C28.7097 108.877 27.8449 108.455 26.718 108.455ZM39.3474 119.828C37.7386 119.828 36.4524 119.248 35.4888 118.087C34.532 116.918 34.0536 115.371 34.0536 113.447C34.0536 111.353 34.5532 109.717 35.5524 108.54C36.5515 107.363 37.9016 106.775 39.6026 106.775C41.2251 106.775 42.4901 107.347 43.3976 108.492C44.312 109.636 44.7692 111.223 44.7692 113.252C44.7692 115.241 44.2764 116.837 43.291 118.038C42.3131 119.231 40.9985 119.828 39.3474 119.828ZM39.4745 108.455C38.3551 108.455 37.4693 108.894 36.8174 109.771C36.1654 110.639 35.8394 111.84 35.8394 113.374C35.8394 114.852 36.1688 116.017 36.8277 116.869C37.4865 117.722 38.3688 118.149 39.4745 118.149C40.6015 118.149 41.4663 117.73 42.069 116.894C42.678 116.057 42.9825 114.868 42.9825 113.326C42.9825 111.768 42.678 110.566 42.069 109.721C41.4663 108.877 40.6015 108.455 39.4745 108.455ZM52.6032 119.415C52.1924 119.674 51.6502 119.804 50.9764 119.804C49.0703 119.804 48.1173 118.587 48.1173 116.151V108.772H46.2464V107.068H48.1173V104.024L49.861 103.378V107.068H52.6032V108.772H49.861V115.798C49.861 116.634 49.985 117.231 50.2331 117.589C50.4806 117.946 50.8913 118.124 51.4654 118.124C51.9048 118.124 52.2841 117.986 52.6032 117.711V119.415ZM54.2721 119.08V116.937C55.2214 117.74 56.2667 118.142 57.408 118.142C58.9388 118.142 59.7042 117.558 59.7042 116.39C59.7042 116.056 59.6369 115.776 59.5023 115.549C59.3745 115.313 59.1972 115.106 58.9703 114.928C58.7509 114.749 58.4888 114.591 58.184 114.453C57.8861 114.307 57.5635 114.157 57.2163 114.002C56.7351 113.783 56.31 113.564 55.941 113.345C55.5801 113.118 55.2753 112.866 55.0266 112.59C54.786 112.306 54.6018 111.985 54.4741 111.628C54.3538 111.271 54.2936 110.853 54.2936 110.374C54.2936 109.79 54.4105 109.274 54.6442 108.828C54.878 108.373 55.1896 107.995 55.5792 107.696C55.9688 107.387 56.412 107.155 56.9087 107.001C57.4117 106.846 57.929 106.769 58.4607 106.769C59.4032 106.769 60.2465 106.956 60.9907 107.33V109.351C60.1898 108.75 59.2682 108.45 58.2261 108.45C57.9001 108.45 57.6062 108.494 57.3444 108.583C57.082 108.665 56.8551 108.783 56.6638 108.938C56.4793 109.091 56.334 109.278 56.2281 109.497C56.1289 109.708 56.0794 109.944 56.0794 110.204C56.0794 110.528 56.1289 110.8 56.2281 111.019C56.334 111.238 56.4864 111.433 56.6852 111.604C56.8835 111.774 57.1244 111.928 57.408 112.066C57.6916 112.204 58.0141 112.354 58.3756 112.517C58.8569 112.728 59.2892 112.947 59.6724 113.175C60.0551 113.394 60.3811 113.645 60.6504 113.93C60.9197 114.205 61.1251 114.526 61.2666 114.891C61.4155 115.256 61.49 115.69 61.49 116.194C61.49 116.811 61.3697 117.346 61.1291 117.801C60.8948 118.256 60.5791 118.633 60.182 118.933C59.7856 119.234 59.3287 119.457 58.8113 119.604C58.294 119.75 57.7517 119.823 57.1845 119.823C56.0651 119.823 55.094 119.575 54.2713 119.08H54.2721ZM69.2175 119.415C68.8067 119.674 68.2645 119.804 67.5907 119.804C65.6846 119.804 64.7316 118.587 64.7316 116.151V108.772H62.8607V107.068H64.7316V104.024L66.4752 103.378V107.068H69.2175V108.772H66.4752V115.798C66.4752 116.634 66.5993 117.231 66.8474 117.589C67.0949 117.946 67.5056 118.124 68.0797 118.124C68.5191 118.124 68.8984 117.986 69.2175 117.711V119.415ZM77.2226 109.088C76.9178 108.821 76.4784 108.687 75.9043 108.687C75.1601 108.687 74.5365 109.088 74.0334 109.892C73.5373 110.696 73.2892 111.792 73.2892 113.179V119.536H71.5464V107.068H73.2892V109.637H73.3322C73.5803 108.76 73.9593 108.078 74.4691 107.591C74.979 107.096 75.5497 106.848 76.181 106.848C76.6342 106.848 76.9814 106.905 77.2226 107.019V109.088ZM86.9086 119.533H85.1649V117.584H85.122C84.364 119.078 83.2482 119.825 81.7747 119.825C80.6902 119.825 79.8394 119.496 79.2224 118.839C78.6133 118.181 78.3088 117.308 78.3088 116.22C78.3088 113.891 79.5062 112.535 81.901 112.155L85.1649 111.63C85.1649 109.512 84.4173 108.453 82.922 108.453C81.6111 108.453 80.4278 108.964 79.3719 109.986V107.941C80.4421 107.162 81.6753 106.772 83.0715 106.772C85.6296 106.772 86.9086 108.323 86.9086 111.423V119.533ZM85.1649 113.226L82.5395 113.639C81.7317 113.769 81.1221 114 80.7108 114.333C80.3 114.658 80.0946 115.238 80.0946 116.075C80.0946 116.684 80.2825 117.183 80.6584 117.573C81.0411 117.953 81.5478 118.144 82.1786 118.144C83.0431 118.144 83.7553 117.799 84.315 117.11C84.8822 116.412 85.1658 115.531 85.1658 114.467L85.1649 113.226ZM91.9789 117.731H91.936V125.269H90.1931V107.065H91.9368V109.256H91.9789C92.8366 107.6 94.091 106.772 95.7421 106.772C97.1452 106.772 98.24 107.332 99.0266 108.453C99.8133 109.564 100.207 111.058 100.207 112.933C100.207 115.02 99.7637 116.692 98.878 117.95C97.9922 119.2 96.7805 119.825 95.2428 119.825C93.8323 119.825 92.7443 119.127 91.9789 117.73V117.731ZM91.936 112.702V114.444C91.936 115.475 92.2267 116.351 92.8082 117.074C93.3966 117.788 94.1405 118.146 95.04 118.146C96.0965 118.146 96.9223 117.683 97.5176 116.758C98.1191 115.832 98.4199 114.545 98.4199 112.897C98.4199 111.509 98.1404 110.421 97.5812 109.634C97.0214 108.846 96.2632 108.453 95.3064 108.453C94.2924 108.453 93.4774 108.858 92.8615 109.67C92.2445 110.474 91.936 111.485 91.936 112.702Z" fill="#7952B3"/>
</svg>

<svg xmlns="http://www.w3.org/2000/svg" width="110" height="126" fill="none"><path fill="#7952B3" d="M23.451 0c-6.168 0-10.73 6.186-10.526 12.894.196 6.444-.059 14.792-1.894 21.598C9.192 41.319 6.081 45.633 1 46.189v6.287c5.081.554 8.192 4.87 10.031 11.697 1.835 6.806 2.089 15.154 1.894 21.598-.205 6.708 4.358 12.893 10.526 12.893H86.65c6.167 0 10.73-6.186 10.526-12.893-.196-6.444.058-14.792 1.892-21.598 1.84-6.826 4.943-11.142 10.024-11.697v-6.287c-5.081-.554-8.184-4.87-10.024-11.697-1.834-6.806-2.088-15.154-1.892-21.598C97.38 6.186 92.817 0 86.65 0H23.45Zm49.942 60.722c0 9.238-6.017 14.838-16.002 14.838H38.98a.397.397 0 0 1-.298-.142.521.521 0 0 1-.124-.342V23.568c0-.064.01-.127.032-.185a.493.493 0 0 1 .091-.157.422.422 0 0 1 .137-.105.375.375 0 0 1 .162-.037h18.312c8.327 0 13.79 5.164 13.79 13.092 0 5.564-3.675 10.545-8.358 11.418v.292c6.374.8 10.668 5.855 10.668 12.836ZM55.537 29.74h-9.692v15.673h8.164c6.31 0 9.789-2.909 9.789-8.11 0-4.872-2.992-7.563-8.261-7.563Zm-9.692 21.893v17.273h10.05c6.57 0 10.05-3.018 10.05-8.692 0-5.673-3.577-8.581-10.473-8.581h-9.627ZM9.795 119.533v-17.461h4.337c1.318 0 2.363.369 3.136 1.108.773.738 1.159 1.7 1.159 2.885 0 .991-.234 1.852-.701 2.582a3.841 3.841 0 0 1-1.936 1.559v.049c1.028.138 1.85.584 2.467 1.339.616.746.924 1.721.924 2.922 0 1.494-.467 2.703-1.402 3.629-.936.925-2.116 1.388-3.54 1.388H9.794Zm1.786-15.611v5.638h1.829c.978 0 1.746-.268 2.306-.803.56-.545.84-1.308.84-2.29 0-1.696-.975-2.545-2.924-2.545h-2.051Zm0 7.477v6.283h2.423c1.05 0 1.86-.284 2.435-.852.58-.569.871-1.348.871-2.338 0-2.062-1.226-3.093-3.678-3.093h-2.051Zm15.01 8.429c-1.609 0-2.895-.58-3.859-1.741-.957-1.169-1.435-2.716-1.435-4.64 0-2.094.5-3.73 1.499-4.907.999-1.177 2.349-1.765 4.05-1.765 1.622 0 2.887.572 3.795 1.717.914 1.144 1.37 2.731 1.37 4.76 0 1.989-.492 3.585-1.477 4.786-.977 1.193-2.292 1.79-3.943 1.79Zm.127-11.373c-1.12 0-2.005.439-2.657 1.316-.652.868-.978 2.069-.978 3.603 0 1.478.33 2.643.988 3.495.659.853 1.541 1.28 2.647 1.28 1.127 0 1.992-.419 2.594-1.255.61-.837.914-2.026.914-3.568 0-1.558-.305-2.76-.914-3.605-.602-.844-1.467-1.266-2.594-1.266Zm12.63 11.373c-1.61 0-2.896-.58-3.86-1.741-.956-1.169-1.434-2.716-1.434-4.64 0-2.094.5-3.73 1.498-4.907 1-1.177 2.35-1.765 4.05-1.765 1.623 0 2.888.572 3.796 1.717.914 1.144 1.371 2.731 1.371 4.76 0 1.989-.493 3.585-1.478 4.786-.978 1.193-2.292 1.79-3.944 1.79Zm.127-11.373c-1.12 0-2.006.439-2.658 1.316-.652.868-.978 2.069-.978 3.603 0 1.478.33 2.643.989 3.495.658.853 1.54 1.28 2.646 1.28 1.128 0 1.992-.419 2.595-1.255.609-.837.913-2.026.913-3.568 0-1.558-.304-2.76-.913-3.605-.603-.844-1.468-1.266-2.595-1.266Zm13.128 10.96c-.41.259-.953.389-1.627.389-1.906 0-2.859-1.217-2.859-3.653v-7.379h-1.87v-1.704h1.87v-3.044l1.744-.646v3.69h2.742v1.704h-2.742v7.026c0 .836.124 1.433.372 1.791.248.357.658.535 1.232.535.44 0 .82-.138 1.138-.413v1.704Zm1.67-.335v-2.143c.948.803 1.994 1.205 3.135 1.205 1.53 0 2.296-.584 2.296-1.752 0-.334-.067-.614-.202-.841a1.993 1.993 0 0 0-.532-.621 3.558 3.558 0 0 0-.786-.475 29.96 29.96 0 0 0-.968-.451 13.324 13.324 0 0 1-1.275-.657 4.307 4.307 0 0 1-.914-.755 3.08 3.08 0 0 1-.553-.962 3.932 3.932 0 0 1-.18-1.254c0-.584.117-1.1.35-1.546.234-.455.546-.833.935-1.132.39-.309.833-.541 1.33-.695a5.24 5.24 0 0 1 1.552-.232c.942 0 1.785.187 2.53.561v2.021c-.801-.601-1.723-.901-2.765-.901-.326 0-.62.044-.882.133-.262.082-.489.2-.68.355-.185.153-.33.34-.436.559-.1.211-.149.447-.149.707 0 .324.05.596.15.815.105.219.257.414.456.585.198.17.44.324.723.462.284.138.606.288.968.451.48.211.913.43 1.296.658.383.219.71.47.978.755.27.275.475.596.617.961.148.365.223.799.223 1.303 0 .617-.12 1.152-.36 1.607-.235.455-.55.832-.948 1.132a4.088 4.088 0 0 1-1.37.671 5.961 5.961 0 0 1-1.627.219c-1.12 0-2.091-.248-2.914-.743h.001Zm14.944.335c-.41.259-.953.389-1.626.389-1.906 0-2.86-1.217-2.86-3.653v-7.379h-1.87v-1.704h1.87v-3.044l1.744-.646v3.69h2.743v1.704h-2.743v7.026c0 .836.124 1.433.372 1.791.248.357.659.535 1.233.535.44 0 .818-.138 1.138-.413v1.704Zm8.006-10.327c-.305-.267-.745-.401-1.319-.401-.744 0-1.367.401-1.87 1.205-.497.804-.745 1.9-.745 3.287v6.357h-1.743v-12.468h1.743v2.569h.043c.248-.877.627-1.559 1.137-2.046.51-.495 1.08-.743 1.712-.743.453 0 .8.057 1.042.171v2.069Zm9.686 10.445h-1.744v-1.949h-.043c-.758 1.494-1.874 2.241-3.347 2.241-1.085 0-1.936-.329-2.553-.986-.609-.658-.913-1.531-.913-2.619 0-2.329 1.197-3.685 3.592-4.065l3.264-.525c0-2.118-.748-3.177-2.243-3.177-1.31 0-2.494.511-3.55 1.533v-2.045c1.07-.779 2.303-1.169 3.7-1.169 2.558 0 3.837 1.551 3.837 4.651v8.11Zm-1.744-6.307-2.626.413c-.807.13-1.417.361-1.828.694-.411.325-.616.905-.616 1.742 0 .609.188 1.108.563 1.498.383.38.89.571 1.52.571.865 0 1.577-.345 2.137-1.034.567-.698.85-1.579.85-2.643v-1.241Zm6.814 4.505h-.043v7.538h-1.743v-18.204h1.744v2.191h.042c.858-1.656 2.112-2.484 3.763-2.484 1.403 0 2.498.56 3.285 1.681.786 1.111 1.18 2.605 1.18 4.48 0 2.087-.443 3.759-1.329 5.017-.886 1.25-2.097 1.875-3.635 1.875-1.41 0-2.499-.698-3.264-2.095v.001Zm-.043-5.029v1.742c0 1.031.29 1.907.872 2.63.589.714 1.332 1.072 2.232 1.072 1.056 0 1.882-.463 2.478-1.388.601-.926.902-2.213.902-3.861 0-1.388-.28-2.476-.839-3.263-.56-.788-1.318-1.181-2.275-1.181-1.014 0-1.829.405-2.444 1.217-.617.804-.926 1.815-.926 3.032Z"/></svg>
